report_00007_2020-12-11T15:55:29.892Z/mainthread-work-breakdown/samples/pages+cached+noexternal+nofonts/raw/values.svg

<svg width="640" height="490" xmlns="http://www.w3.org/2000/svg" xmlns:xlink="http://www.w3.org/1999/xlink"><path fill="#fff" d="M0 0h640v490H0z"/><defs><path id="d" stroke-width=".222" stroke="currentColor" d="M-1-1h2v2h-2z"/><path id="b" stroke-width=".222" stroke="currentColor" d="M0-1.33l-1.33 2h2.66z"/><path id="f" stroke-width=".222" stroke="currentColor" d="M0 1.33L1.265.411.782-1.067l-1.564-.009-.483 1.487z"/><use xlink:href="#b" id="c" stroke="currentColor" transform="rotate(180)"/><use xlink:href="#d" id="e" stroke="currentColor" transform="rotate(45)"/><circle id="a" stroke-width=".222" stroke="currentColor" cx="0" cy="0" r="1"/></defs><g fill="none" color="#000" stroke="currentColor"><path stroke="#000" d="M53.9 390.2h9m552.1 0h-9"/><text transform="translate(45.6 394.1)" stroke="none" fill="#000" font-family="Arial" font-size="12" text-anchor="end"><tspan>600</tspan></text></g><g fill="none" color="#000" stroke="currentColor"><path stroke="#000" d="M53.9 331.2h9m552.1 0h-9"/><text transform="translate(45.6 335.1)" stroke="none" fill="#000" font-family="Arial" font-size="12" text-anchor="end"><tspan>620</tspan></text></g><g fill="none" color="#000" stroke="currentColor"><path stroke="#000" d="M53.9 272.1h9m552.1 0h-9"/><text transform="translate(45.6 276)" stroke="none" fill="#000" font-family="Arial" font-size="12" text-anchor="end"><tspan>640</tspan></text></g><g fill="none" color="#000" stroke="currentColor"><path stroke="#000" d="M53.9 213h9m552.1 0h-9"/><text transform="translate(45.6 216.9)" stroke="none" fill="#000" font-family="Arial" font-size="12" text-anchor="end"><tspan>660</tspan></text></g><g fill="none" color="#000" stroke="currentColor"><path stroke="#000" d="M53.9 153.9h9m552.1 0h-9"/><text transform="translate(45.6 157.8)" stroke="none" fill="#000" font-family="Arial" font-size="12" text-anchor="end"><tspan>680</tspan></text></g><g fill="none" color="#000" stroke="currentColor"><path stroke="#000" d="M53.9 94.8h9m552.1 0h-9"/><text transform="translate(45.6 98.7)" stroke="none" fill="#000" font-family="Arial" font-size="12" text-anchor="end"><tspan>700</tspan></text></g><g fill="none" color="#000" stroke="currentColor"><path stroke="#000" d="M53.9 35.8h9m552.1 0h-9"/><text transform="translate(45.6 39.7)" stroke="none" fill="#000" font-family="Arial" font-size="12" text-anchor="end"><tspan>720</tspan></text></g><g fill="none" color="#000" stroke="currentColor"><path stroke="#000" d="M53.9 436v-9m0-408.9v9"/><text transform="translate(53.9 457.9)" stroke="none" fill="#000" font-family="Arial" font-size="12" text-anchor="middle"><tspan>0</tspan></text></g><g fill="none" color="#000" stroke="currentColor"><path stroke="#000" d="M110.6 436v-9m0-408.9v9"/><text transform="translate(110.6 457.9)" stroke="none" fill="#000" font-family="Arial" font-size="12" text-anchor="middle"><tspan>10</tspan></text></g><g fill="none" color="#000" stroke="currentColor"><path stroke="#000" d="M167.3 436v-9m0-408.9v9"/><text transform="translate(167.3 457.9)" stroke="none" fill="#000" font-family="Arial" font-size="12" text-anchor="middle"><tspan>20</tspan></text></g><g fill="none" color="#000" stroke="currentColor"><path stroke="#000" d="M223.9 436v-9m0-408.9v9"/><text transform="translate(223.9 457.9)" stroke="none" fill="#000" font-family="Arial" font-size="12" text-anchor="middle"><tspan>30</tspan></text></g><g fill="none" color="#000" stroke="currentColor"><path stroke="#000" d="M280.6 436v-9m0-408.9v9"/><text transform="translate(280.6 457.9)" stroke="none" fill="#000" font-family="Arial" font-size="12" text-anchor="middle"><tspan>40</tspan></text></g><g fill="none" color="#000" stroke="currentColor"><path stroke="#000" d="M337.3 436v-9m0-408.9v9"/><text transform="translate(337.3 457.9)" stroke="none" fill="#000" font-family="Arial" font-size="12" text-anchor="middle"><tspan>50</tspan></text></g><g fill="none" color="#000" stroke="currentColor"><path stroke="#000" d="M394 436v-9m0-408.9v9"/><text transform="translate(394 457.9)" stroke="none" fill="#000" font-family="Arial" font-size="12" text-anchor="middle"><tspan>60</tspan></text></g><g fill="none" color="#000" stroke="currentColor"><path stroke="#000" d="M450.6 436v-9m0-408.9v9"/><text transform="translate(450.6 457.9)" stroke="none" fill="#000" font-family="Arial" font-size="12" text-anchor="middle"><tspan>70</tspan></text></g><g fill="none" color="#000" stroke="currentColor"><path stroke="#000" d="M507.3 436v-9m0-408.9v9"/><text transform="translate(507.3 457.9)" stroke="none" fill="#000" font-family="Arial" font-size="12" text-anchor="middle"><tspan>80</tspan></text></g><g fill="none" color="#000" stroke="currentColor"><path stroke="#000" d="M564 436v-9m0-408.9v9"/><text transform="translate(564 457.9)" stroke="none" fill="#000" font-family="Arial" font-size="12" text-anchor="middle"><tspan>90</tspan></text></g><path stroke="#000" d="M53.9 18.1V436H615V18.1H53.9z" fill="none" color="#000"/><text transform="translate(175.7 475.9)" stroke="none" fill="#000" font-family="Arial" font-size="12" text-anchor="end" color="#000"><tspan>raw</tspan></text><path stroke="#9400D3" d="M184 472h42.2M53.9 182.8l5.7 105.3 5.6-128.8 5.7-13.2 5.7 9 5.6 17.2 5.7 111.3 5.7-93L99.2 297l5.7-72.1 5.7-71.1 5.6 72 5.7-84.6 5.7 157.9 5.6-98.3 5.7-12.6 5.7-27.2 5.7 27.2 5.6-30.3 5.7 62.8 5.7 80.9 5.6-263.5 5.7 124 5.7-19.4 5.6-17.3 5.7-.5 5.7 49.2 5.6 2.2 5.7 4.2 5.7 43.9 5.6-11.6 5.7-39.5 5.7 2.6 5.6 41.1 5.7 46 5.7-30.4 5.6 59.9 5.7-159.2 5.7-7.1 5.6-100.1 5.7 208.3 5.7 25.9 5.6 22.4 5.7-109.6 5.7-101.7 5.6 160.1 5.7-90.8 5.7 117.8 5.6 86 5.7-87.4 5.7-36.9 5.7-55.8 5.6-4 5.7 26.8L360 244l5.6-55 5.7-10.4 5.7 59.8 5.6-35.3 5.7-43.2 5.7 171.7 5.6-124.8 5.7 66.3 5.7-66.6 5.6 95 5.7-6.3 5.7-85 5.6 29.6 5.7-16.2 5.7-82.2 5.6 16.4 5.7 37.1 5.7-48.5 5.6 212 5.7-106.2 5.7-45 5.6 66.1 5.7-43.8 5.7-80.3 5.6-66.8 5.7 159.8L513 186l5.6 89.4 5.7 65.4 5.7-154.9 5.7 24.5 5.6 23.2 5.7 97.2 5.7-116.9 5.6 31.4 5.7-7.5 5.7-57.4 5.6 5.7 5.7 131.2 5.7 110.7 5.6-188.6L598 155l5.7 58.6 5.6-54.3 5.7 4.7" fill="none" color="#000"/><text transform="translate(375.6 475.9)" stroke="none" fill="#000" font-family="Arial" font-size="12" text-anchor="end" color="#000"><tspan>score p10=2017</tspan></text><path stroke="#009E73" d="M383.9 472h42.2" fill="none" color="#000"/><text transform="translate(575.5 475.9)" stroke="none" fill="#000" font-family="Arial" font-size="12" text-anchor="end" color="#000"><tspan>score median=4000</tspan></text><path stroke="#56B4E9" d="M583.8 472H626" fill="none" color="#000"/><g fill="none" color="#000" stroke="currentColor"><path stroke="#000" d="M53.9 18.1V436H615V18.1H53.9z"/></g></svg>

<?xml version="1.0" encoding="utf-8"  standalone="no"?>
<svg 
 width="640" height="490"
 viewBox="0 0 640 490"
 xmlns="http://www.w3.org/2000/svg"
 xmlns:xlink="http://www.w3.org/1999/xlink"
>

<title>Gnuplot</title>
<desc>Produced by GNUPLOT 5.4 patchlevel 0 </desc>

<g id="gnuplot_canvas">

<rect x="0" y="0" width="640" height="490" fill="#ffffff"/>
<defs>

	<circle id='gpDot' r='0.5' stroke-width='0.5' stroke='currentColor'/>
	<path id='gpPt0' stroke-width='0.222' stroke='currentColor' d='M-1,0 h2 M0,-1 v2'/>
	<path id='gpPt1' stroke-width='0.222' stroke='currentColor' d='M-1,-1 L1,1 M1,-1 L-1,1'/>
	<path id='gpPt2' stroke-width='0.222' stroke='currentColor' d='M-1,0 L1,0 M0,-1 L0,1 M-1,-1 L1,1 M-1,1 L1,-1'/>
	<rect id='gpPt3' stroke-width='0.222' stroke='currentColor' x='-1' y='-1' width='2' height='2'/>
	<rect id='gpPt4' stroke-width='0.222' stroke='currentColor' fill='currentColor' x='-1' y='-1' width='2' height='2'/>
	<circle id='gpPt5' stroke-width='0.222' stroke='currentColor' cx='0' cy='0' r='1'/>
	<use xlink:href='#gpPt5' id='gpPt6' fill='currentColor' stroke='none'/>
	<path id='gpPt7' stroke-width='0.222' stroke='currentColor' d='M0,-1.33 L-1.33,0.67 L1.33,0.67 z'/>
	<use xlink:href='#gpPt7' id='gpPt8' fill='currentColor' stroke='none'/>
	<use xlink:href='#gpPt7' id='gpPt9' stroke='currentColor' transform='rotate(180)'/>
	<use xlink:href='#gpPt9' id='gpPt10' fill='currentColor' stroke='none'/>
	<use xlink:href='#gpPt3' id='gpPt11' stroke='currentColor' transform='rotate(45)'/>
	<use xlink:href='#gpPt11' id='gpPt12' fill='currentColor' stroke='none'/>
	<path id='gpPt13' stroke-width='0.222' stroke='currentColor' d='M0,1.330 L1.265,0.411 L0.782,-1.067 L-0.782,-1.076 L-1.265,0.411 z'/>
	<use xlink:href='#gpPt13' id='gpPt14' fill='currentColor' stroke='none'/>
	<filter id='textbox' filterUnits='objectBoundingBox' x='0' y='0' height='1' width='1'>
	  <feFlood flood-color='#FFFFFF' flood-opacity='1' result='bgnd'/>
	  <feComposite in='SourceGraphic' in2='bgnd' operator='atop'/>
	</filter>
	<filter id='greybox' filterUnits='objectBoundingBox' x='0' y='0' height='1' width='1'>
	  <feFlood flood-color='lightgrey' flood-opacity='1' result='grey'/>
	  <feComposite in='SourceGraphic' in2='grey' operator='atop'/>
	</filter>
</defs>
<g fill="none" color="#FFFFFF" stroke="black" stroke-width="1.00" stroke-linecap="butt" stroke-linejoin="miter">
</g>
<g fill="none" color="black" stroke="currentColor" stroke-width="1.00" stroke-linecap="butt" stroke-linejoin="miter">
	<path stroke='black'  d='M53.9,390.2 L62.9,390.2 M615.0,390.2 L606.0,390.2  '/>	<g transform="translate(45.6,394.1)" stroke="none" fill="black" font-family="Arial" font-size="12.00"  text-anchor="end">
		<text><tspan font-family="Arial" > 600</tspan></text>
	</g>
</g>
<g fill="none" color="black" stroke="currentColor" stroke-width="1.00" stroke-linecap="butt" stroke-linejoin="miter">
	<path stroke='black'  d='M53.9,331.2 L62.9,331.2 M615.0,331.2 L606.0,331.2  '/>	<g transform="translate(45.6,335.1)" stroke="none" fill="black" font-family="Arial" font-size="12.00"  text-anchor="end">
		<text><tspan font-family="Arial" > 620</tspan></text>
	</g>
</g>
<g fill="none" color="black" stroke="currentColor" stroke-width="1.00" stroke-linecap="butt" stroke-linejoin="miter">
	<path stroke='black'  d='M53.9,272.1 L62.9,272.1 M615.0,272.1 L606.0,272.1  '/>	<g transform="translate(45.6,276.0)" stroke="none" fill="black" font-family="Arial" font-size="12.00"  text-anchor="end">
		<text><tspan font-family="Arial" > 640</tspan></text>
	</g>
</g>
<g fill="none" color="black" stroke="currentColor" stroke-width="1.00" stroke-linecap="butt" stroke-linejoin="miter">
	<path stroke='black'  d='M53.9,213.0 L62.9,213.0 M615.0,213.0 L606.0,213.0  '/>	<g transform="translate(45.6,216.9)" stroke="none" fill="black" font-family="Arial" font-size="12.00"  text-anchor="end">
		<text><tspan font-family="Arial" > 660</tspan></text>
	</g>
</g>
<g fill="none" color="black" stroke="currentColor" stroke-width="1.00" stroke-linecap="butt" stroke-linejoin="miter">
	<path stroke='black'  d='M53.9,153.9 L62.9,153.9 M615.0,153.9 L606.0,153.9  '/>	<g transform="translate(45.6,157.8)" stroke="none" fill="black" font-family="Arial" font-size="12.00"  text-anchor="end">
		<text><tspan font-family="Arial" > 680</tspan></text>
	</g>
</g>
<g fill="none" color="black" stroke="currentColor" stroke-width="1.00" stroke-linecap="butt" stroke-linejoin="miter">
	<path stroke='black'  d='M53.9,94.8 L62.9,94.8 M615.0,94.8 L606.0,94.8  '/>	<g transform="translate(45.6,98.7)" stroke="none" fill="black" font-family="Arial" font-size="12.00"  text-anchor="end">
		<text><tspan font-family="Arial" > 700</tspan></text>
	</g>
</g>
<g fill="none" color="black" stroke="currentColor" stroke-width="1.00" stroke-linecap="butt" stroke-linejoin="miter">
	<path stroke='black'  d='M53.9,35.8 L62.9,35.8 M615.0,35.8 L606.0,35.8  '/>	<g transform="translate(45.6,39.7)" stroke="none" fill="black" font-family="Arial" font-size="12.00"  text-anchor="end">
		<text><tspan font-family="Arial" > 720</tspan></text>
	</g>
</g>
<g fill="none" color="black" stroke="currentColor" stroke-width="1.00" stroke-linecap="butt" stroke-linejoin="miter">
	<path stroke='black'  d='M53.9,436.0 L53.9,427.0 M53.9,18.1 L53.9,27.1  '/>	<g transform="translate(53.9,457.9)" stroke="none" fill="black" font-family="Arial" font-size="12.00"  text-anchor="middle">
		<text><tspan font-family="Arial" > 0</tspan></text>
	</g>
</g>
<g fill="none" color="black" stroke="currentColor" stroke-width="1.00" stroke-linecap="butt" stroke-linejoin="miter">
	<path stroke='black'  d='M110.6,436.0 L110.6,427.0 M110.6,18.1 L110.6,27.1  '/>	<g transform="translate(110.6,457.9)" stroke="none" fill="black" font-family="Arial" font-size="12.00"  text-anchor="middle">
		<text><tspan font-family="Arial" > 10</tspan></text>
	</g>
</g>
<g fill="none" color="black" stroke="currentColor" stroke-width="1.00" stroke-linecap="butt" stroke-linejoin="miter">
	<path stroke='black'  d='M167.3,436.0 L167.3,427.0 M167.3,18.1 L167.3,27.1  '/>	<g transform="translate(167.3,457.9)" stroke="none" fill="black" font-family="Arial" font-size="12.00"  text-anchor="middle">
		<text><tspan font-family="Arial" > 20</tspan></text>
	</g>
</g>
<g fill="none" color="black" stroke="currentColor" stroke-width="1.00" stroke-linecap="butt" stroke-linejoin="miter">
	<path stroke='black'  d='M223.9,436.0 L223.9,427.0 M223.9,18.1 L223.9,27.1  '/>	<g transform="translate(223.9,457.9)" stroke="none" fill="black" font-family="Arial" font-size="12.00"  text-anchor="middle">
		<text><tspan font-family="Arial" > 30</tspan></text>
	</g>
</g>
<g fill="none" color="black" stroke="currentColor" stroke-width="1.00" stroke-linecap="butt" stroke-linejoin="miter">
	<path stroke='black'  d='M280.6,436.0 L280.6,427.0 M280.6,18.1 L280.6,27.1  '/>	<g transform="translate(280.6,457.9)" stroke="none" fill="black" font-family="Arial" font-size="12.00"  text-anchor="middle">
		<text><tspan font-family="Arial" > 40</tspan></text>
	</g>
</g>
<g fill="none" color="black" stroke="currentColor" stroke-width="1.00" stroke-linecap="butt" stroke-linejoin="miter">
	<path stroke='black'  d='M337.3,436.0 L337.3,427.0 M337.3,18.1 L337.3,27.1  '/>	<g transform="translate(337.3,457.9)" stroke="none" fill="black" font-family="Arial" font-size="12.00"  text-anchor="middle">
		<text><tspan font-family="Arial" > 50</tspan></text>
	</g>
</g>
<g fill="none" color="black" stroke="currentColor" stroke-width="1.00" stroke-linecap="butt" stroke-linejoin="miter">
	<path stroke='black'  d='M394.0,436.0 L394.0,427.0 M394.0,18.1 L394.0,27.1  '/>	<g transform="translate(394.0,457.9)" stroke="none" fill="black" font-family="Arial" font-size="12.00"  text-anchor="middle">
		<text><tspan font-family="Arial" > 60</tspan></text>
	</g>
</g>
<g fill="none" color="black" stroke="currentColor" stroke-width="1.00" stroke-linecap="butt" stroke-linejoin="miter">
	<path stroke='black'  d='M450.6,436.0 L450.6,427.0 M450.6,18.1 L450.6,27.1  '/>	<g transform="translate(450.6,457.9)" stroke="none" fill="black" font-family="Arial" font-size="12.00"  text-anchor="middle">
		<text><tspan font-family="Arial" > 70</tspan></text>
	</g>
</g>
<g fill="none" color="black" stroke="currentColor" stroke-width="1.00" stroke-linecap="butt" stroke-linejoin="miter">
	<path stroke='black'  d='M507.3,436.0 L507.3,427.0 M507.3,18.1 L507.3,27.1  '/>	<g transform="translate(507.3,457.9)" stroke="none" fill="black" font-family="Arial" font-size="12.00"  text-anchor="middle">
		<text><tspan font-family="Arial" > 80</tspan></text>
	</g>
</g>
<g fill="none" color="black" stroke="currentColor" stroke-width="1.00" stroke-linecap="butt" stroke-linejoin="miter">
	<path stroke='black'  d='M564.0,436.0 L564.0,427.0 M564.0,18.1 L564.0,27.1  '/>	<g transform="translate(564.0,457.9)" stroke="none" fill="black" font-family="Arial" font-size="12.00"  text-anchor="middle">
		<text><tspan font-family="Arial" > 90</tspan></text>
	</g>
</g>
<g fill="none" color="black" stroke="currentColor" stroke-width="1.00" stroke-linecap="butt" stroke-linejoin="miter">
</g>
<g fill="none" color="black" stroke="currentColor" stroke-width="1.00" stroke-linecap="butt" stroke-linejoin="miter">
	<path stroke='black'  d='M53.9,18.1 L53.9,436.0 L615.0,436.0 L615.0,18.1 L53.9,18.1 Z  '/></g>
<g fill="none" color="black" stroke="currentColor" stroke-width="1.00" stroke-linecap="butt" stroke-linejoin="miter">
</g>
	<g id="gnuplot_plot_1" ><title>raw</title>
<g fill="none" color="black" stroke="currentColor" stroke-width="1.00" stroke-linecap="butt" stroke-linejoin="miter">
	<g transform="translate(175.7,475.9)" stroke="none" fill="black" font-family="Arial" font-size="12.00"  text-anchor="end">
		<text><tspan font-family="Arial" >raw</tspan></text>
	</g>
</g>
<g fill="none" color="black" stroke="currentColor" stroke-width="1.00" stroke-linecap="butt" stroke-linejoin="miter">
	<path stroke='rgb(148,   0, 211)'  d='M184.0,472.0 L226.2,472.0 M53.9,182.8 L59.6,288.1 L65.2,159.3 L70.9,146.1 L76.6,155.1 L82.2,172.3
		L87.9,283.6 L93.6,190.6 L99.2,297.0 L104.9,224.9 L110.6,153.8 L116.2,225.8 L121.9,141.2 L127.6,299.1
		L133.2,200.8 L138.9,188.2 L144.6,161.0 L150.3,188.2 L155.9,157.9 L161.6,220.7 L167.3,301.6 L172.9,38.1
		L178.6,162.1 L184.3,142.7 L189.9,125.4 L195.6,124.9 L201.3,174.1 L206.9,176.3 L212.6,180.5 L218.3,224.4
		L223.9,212.8 L229.6,173.3 L235.3,175.9 L240.9,217.0 L246.6,263.0 L252.3,232.6 L257.9,292.5 L263.6,133.3
		L269.3,126.2 L274.9,26.1 L280.6,234.4 L286.3,260.3 L291.9,282.7 L297.6,173.1 L303.3,71.4 L308.9,231.5
		L314.6,140.7 L320.3,258.5 L325.9,344.5 L331.6,257.1 L337.3,220.2 L343.0,164.4 L348.6,160.4 L354.3,187.2
		L360.0,244.0 L365.6,189.0 L371.3,178.6 L377.0,238.4 L382.6,203.1 L388.3,159.9 L394.0,331.6 L399.6,206.8
		L405.3,273.1 L411.0,206.5 L416.6,301.5 L422.3,295.2 L428.0,210.2 L433.6,239.8 L439.3,223.6 L445.0,141.4
		L450.6,157.8 L456.3,194.9 L462.0,146.4 L467.6,358.4 L473.3,252.2 L479.0,207.2 L484.6,273.3 L490.3,229.5
		L496.0,149.2 L501.6,82.4 L507.3,242.2 L513.0,186.0 L518.6,275.4 L524.3,340.8 L530.0,185.9 L535.7,210.4
		L541.3,233.6 L547.0,330.8 L552.7,213.9 L558.3,245.3 L564.0,237.8 L569.7,180.4 L575.3,186.1 L581.0,317.3
		L586.7,428.0 L592.3,239.4 L598.0,155.0 L603.7,213.6 L609.3,159.3 L615.0,164.0  '/></g>
	</g>
	<g id="gnuplot_plot_2" ><title>score p10=2017</title>
<g fill="none" color="black" stroke="currentColor" stroke-width="1.00" stroke-linecap="butt" stroke-linejoin="miter">
	<g transform="translate(375.6,475.9)" stroke="none" fill="black" font-family="Arial" font-size="12.00"  text-anchor="end">
		<text><tspan font-family="Arial" >score p10=2017</tspan></text>
	</g>
</g>
<g fill="none" color="black" stroke="currentColor" stroke-width="1.00" stroke-linecap="butt" stroke-linejoin="miter">
	<path stroke='rgb(  0, 158, 115)'  d='M383.9,472.0 L426.1,472.0  '/></g>
	</g>
	<g id="gnuplot_plot_3" ><title>score median=4000</title>
<g fill="none" color="black" stroke="currentColor" stroke-width="1.00" stroke-linecap="butt" stroke-linejoin="miter">
	<g transform="translate(575.5,475.9)" stroke="none" fill="black" font-family="Arial" font-size="12.00"  text-anchor="end">
		<text><tspan font-family="Arial" >score median=4000</tspan></text>
	</g>
</g>
<g fill="none" color="black" stroke="currentColor" stroke-width="1.00" stroke-linecap="butt" stroke-linejoin="miter">
	<path stroke='rgb( 86, 180, 233)'  d='M583.8,472.0 L626.0,472.0  '/></g>
	</g>
<g fill="none" color="#FFFFFF" stroke="rgb( 86, 180, 233)" stroke-width="2.00" stroke-linecap="butt" stroke-linejoin="miter">
</g>
<g fill="none" color="black" stroke="currentColor" stroke-width="2.00" stroke-linecap="butt" stroke-linejoin="miter">
</g>
<g fill="none" color="black" stroke="black" stroke-width="1.00" stroke-linecap="butt" stroke-linejoin="miter">
</g>
<g fill="none" color="black" stroke="currentColor" stroke-width="1.00" stroke-linecap="butt" stroke-linejoin="miter">
	<path stroke='black'  d='M53.9,18.1 L53.9,436.0 L615.0,436.0 L615.0,18.1 L53.9,18.1 Z  '/></g>
<g fill="none" color="black" stroke="currentColor" stroke-width="1.00" stroke-linecap="butt" stroke-linejoin="miter">
</g>
</g>
</svg>
